dist/img/icons/graduate-cap.svg

<svg width="32" height="32" viewBox="0 0 32 32" fill="none" xmlns="http://www.w3.org/2000/svg">
<path d="M31 20.4516C31 20.0041 30.7366 19.6301 30.3617 19.4451V12.5019C30.4467 12.4698 30.4995 12.3896 30.4986 12.2999C30.4986 12.2102 30.4401 12.1309 30.3579 12.1016L16.0326 7.04887C15.8494 6.98371 15.6492 6.98371 15.4651 7.04887L1.14165 12.1025C1.05761 12.1318 1.00096 12.2111 1.00001 12.3008C0.999068 12.3905 1.05289 12.4708 1.13599 12.5029L15.4396 18.0702C15.6388 18.1467 15.8588 18.1467 16.0581 18.0702L29.374 12.8844V19.4441C29.0001 19.6283 28.7366 20.005 28.7366 20.4498C28.7366 20.9143 29.0199 21.3175 29.425 21.4903C29.0199 22.2901 28.7366 23.9312 28.7366 24.3996C28.7366 25.0237 29.2437 25.5299 29.8678 25.5299C30.491 25.5299 30.9981 25.0237 30.9981 24.3996C30.9981 23.9312 30.7139 22.2901 30.3097 21.4903C30.7158 21.3194 31 20.9162 31 20.4516Z" fill="white"/>
<path d="M5.61548 15.3062C5.61642 16.9076 5.61737 18.7923 5.61737 19.0917C5.61737 22.0736 10.1054 24.5013 15.7492 24.6534C21.3921 24.5013 25.8802 22.0765 25.8802 19.0917C25.8802 18.7942 25.8802 16.9086 25.8821 15.3062L16.0561 19.1313C15.8569 19.2088 15.6369 19.2088 15.4376 19.1313L5.61548 15.3062Z" fill="white"/>
</svg>

<svg width="32" height="32" viewBox="0 0 32 32" fill="none" xmlns="http://www.w3.org/2000/svg"><path d="M31 20.452c0-.448-.263-.822-.638-1.007v-6.943a.211.211 0 0 0 .137-.202.212.212 0 0 0-.141-.198L16.033 7.049a.848.848 0 0 0-.568 0L1.142 12.102a.213.213 0 1 0-.006.4L15.44 18.07c.199.077.419.077.618 0l13.316-5.186v6.56c-.374.184-.637.561-.637 1.006 0 .464.283.867.688 1.04-.405.8-.688 2.441-.688 2.91a1.131 1.131 0 0 0 2.261 0c0-.469-.284-2.11-.688-2.91.406-.17.69-.574.69-1.038z" fill="#fff"/><path d="M5.615 15.306l.002 3.786c0 2.982 4.488 5.41 10.132 5.561 5.643-.152 10.131-2.576 10.131-5.561 0-.298 0-2.183.002-3.786l-9.826 3.825a.852.852 0 0 1-.618 0l-9.823-3.825z" fill="#fff"/></svg>
